X:1
T:Lauda anima mea - Aichinger
T:James Gibb editions
T:#
%%score [ 1 2 3 4 ]
L:1/8
Q:1/4=216
M:none
K:F
V:1 treble nm="Soprano" snm="S"
V:2 treble nm="Alto" snm="A"
V:3 treble-8 nm="Tenor" snm="T"
V:4 bass nm="Bass" snm="B"
V:1
"^Lauda anima mea Dominum""^Gregor Aichinger\n(1561-1628)""^Psalm 146: 1" z16 | z16 | z16 | z16 | %4
w: ||||
 z16 | z16 | G8 G4 d4- | d2 d2 c4 A4 B4 | (c4 B2 A2 G4) G4 | (B12 A2 G2 | A24 || z16 | z16 | z16 | %14
w: ||Lau- da a\-|* ni- ma me- a|Do\- * * * mi-|num. * *|||||
 z8 B8 | A8 G4 F2 G2 | A2 B2 c2 A2 B2 c2 d4- | d4) ^c4 d8- | d8 z8 | z8 f8 | e8 d8 | e6 e2 d8- | %22
w: Lau-|da- bo Do\- *||* mi- num,||lau-|da- bo|Do- mi- num,|
 d8 z4 d4 | d4 d4 d6 e2 | f4 d4 A4 B4 | c8 B4 G2 (A2 | B2 c2 d2 e2 f6 ed | c4) (d6 c2 B2 A2 | %28
w: * lau-|da- bo Do- mi-|num in vi- ta|me- a, in *||* vi\- * * *|
 G4) c4 (c2 B2 A2 G2 | ^F4 G6 FE F4) | G4 (G2 ^F2 G2 A2 B2 A2 | B2 c2 d2 c2 d6 c2 | %32
w: * ta me\- * * *||a: psal\- * * * * *||
 B2 A2 B2 AG F4) A4 | B4 A4 G8 | A4 A4 B4 d4 | ^c6 d2 d4 A4 | B4 G4 A6 A2 | A4 d4 G4 B4 | %38
w: * * * * * * lam,|De- o me-|o, quam- di- u|fu- e- ro, quam-|di- u fu- e-|ro, quam- di- u|
 A6 A2 =B4 (G2 F2 | G2 A2 B2 A2 B2 c2 d2 c2 | d6 c2 B2 A2 B2 AG | F4) A4 B4 c4 | c8 c4 d4 | %43
w: fu- e- ro, psal- *|||* lam De- o|me- o, quam-|
 B4 d4 ^c6 d2 | d4 d4 B4 G4 |[Q:1/4=212] A6[Q:1/4=207] A2[Q:1/4=204] A4[Q:1/4=199] d4 | %46
w: di- u fu- e-|ro, quam- di- u|fu- e- ro, quam-|
[Q:1/4=194] G4[Q:1/4=190] B4[Q:1/4=185] A6[Q:1/4=181] A2 |[Q:1/4=180] =B16 |] %48
w: di- u fu- e-|ro.|
V:2
 D8 D4 G4- | G2 G2 F4 D4 E4 | (F6 ED E4) F4 | (D2 C2 D2 E2 F4 E2 D2 | F4) G4 D4 (F4- | %5
w: Lau- da a\-|* ni- ma me- a|Do\- * * * mi-|num, * * * * * *|* lau- da a\-|
 F4 E2 D2 C6 D2 | _E4) E4 D8 | F12 F4 | (_E4 D2 C2 B,4) E4 | (D8 G8- | G4 ^F2 E2 F16) || z16 | %12
w: |* ni- ma|me- a|Do\- * * * mi-|num. *|||
 B8 A8 | G8 A6 A2 | (G6 FE D4) (B,2 C2 | D2 E2 F4) (D6 E2 | F2 G2 A4) D8 | A6 A2 ^F8 | %18
w: Lau- da-|bo Do- mi-|num, * * * lau\- *|* * * da\- *|* * * bo|Do- mi- num,|
 z4 G4 (A4 G2 F2 | G4) G4 (F2 G2 A2 B2 | c4) A4 F4 F4 | G4 E4 z4 F4 | F4 F4 D6 E2 | F8 B8 | %24
w: lau- da- * *|* bo Do- * * *|* mi- num, lau-|da- bo, lau-|da- bo Do- mi-|num, lau-|
 A12 G4 | A6 A2 D8 | z4 (D6 E2 F2 G2 | A2 G2 F2 E2 D8) | (_E6 D2 C4) E4 | D16 | %30
w: da- bo|Do- mi- num|in * * *||vi\- * * ta|me-|
 =B,4 (D2 C2 D2 E2 F2 E2 | F2 E2 F4) D4 (G4- | G2 A2 G2 FE D4) C4 | (D2 E2 F6 ED E4) | %34
w: a: psal\- * * * * *|* * * lam de\-|* * * * * * o|me\- * * * * *|
 F4 D4 D4 A4 | A6 ^F2 F4 F4 | G4 D4 E6 ^F2 | ^F4 G4 E4 (D2 E2 | ^F2) G4 F2 G4 (D2 C2 | %39
w: o, quam- di- u|fu- e- ro, quam-|di- u fu- e-|ro, quam- di- u *|* fu- e- ro, psal\- *|
 D2 E2 =F2 E2 F2 E2 F4) | D4 (G6 A2 G2 FE | D4) C4 (D4 F4- | F2 ED E4) F4 F4 | D4 A4 A6 ^F2 | %44
w: |lam De\- * * * *|* o me\- *|* * * * o, quam-|di- u fu- e-|
 ^F4 F4 G4 D4 | E6 ^F2 F4 G4 | E4 (D2 E2 ^F2) G4 F2 | G16 |] %48
w: ro, quam- di- u|fu- e- ro, quam-|di- u * * fu- e-|ro.|
V:3
 z8 G8 | G4 d6 d2 c4 | A4 B4 (c4 B2 A2 | B4) G4 A4 (d4- | d2 c2 B2 A2 B4) A4- | A4 G4 A2 B2 (c4- | %6
w: Lau-|da a- ni- ma|me- a Do\- * *|* mi- num, lau\-|* * * * * da|* a- ni- ma me\-|
 c2 BA G2 A2 B4) B4 | (A6 B2 c4) d4 | (G12 g4- | g4 f2 e2 d8- | d24 || B8 A8 | %12
w: * * * * * * a|Do\- * * mi-|num. *|||Lau- da-|
 G4 (B2 c2 d2 e2 f2 d2 | e2 f2 g8) ^f4 | g4 G2 A2 B2 c2 d2 e2 | f4) F4 G4 d4 | %16
w: bo Do\- * * * * *|* * * mi-|num, lau\- * * * * *|* da- bo, lau-|
 (c2 d2 e2 f2 g4) f4 | e6 e2 d4 A4 | B8 c4 d4- | d4 ^c4 d8 | z4 A4 (d2 c2 B2 A2 | G4 A4 B8 | %22
w: da\- * * * * bo|Do- mi- num, lau-|da- bo Do\-|* mi- num,|in vi\- * * *|* ta me-|
 A8 z4 B4 | A8 G4 (B2 c2 | d2 e2 f2 d2 e2 f2 g4- | g4) ^f4 g4 G4- | G2 A2 B2 c2 d6 cB | %27
w: a, lau-|da- bo Do\- *||* mi- num in||
 A4 B2 c2 d2 e2 f4) | (c6 d2 _e2 d2 c2 B2 | A4) G4 A8 | G4 (G2 A2 B2 c2 d2 c2 | d2 c2 B2 A2 B6 A2 | %32
w: |vi\- * * * * *|* ta me-|a: psal\- * * * * *||
 G2 ^F2 G2 A2 B4) A4 | G4 F4 c8 | F4 f4 g4 f4 | e6 d2 d4 d4 | d4 d4 ^c6 d2 | d4 d4 =c4 d4 | %38
w: * * * * * lam|De- o me-|o, quam- di- u|fu- e- ro, quam-|di- u fu- e-|ro, quam- di- u|
 d6 d2 d8 | z16 | z8 z4 (d2 c2 | d2 e2 f2 e2 g4) a4 | g8 a4 a4 | g4 f4 e6 d2 | d4 d4 d4 d4 | %45
w: fu- e- ro,||De\- *|* * * * * o|me- o, quam-|di- u fu- e-|ro, quam- di- u|
 ^c6 d2 d4 d4 | =c4 d4 d6 d2 | d16 |] %48
w: fu- e- ro, quam-|di- u fu- e-|ro.|
V:4
 z16 | z16 | z16 | z8 D,8 | D,4 G,6 G,2 F,4 | D,4 E,4 (F,6 E,D, | C,4) C,4 (G,,2 A,,2 B,,2 C,2 | %7
w: |||Lau-|da a- ni- ma|me- a Do\- * *|* mi- num, * * *|
 D,4) F,6 E,2 D,4 | C,4 D,4 _E,4 C,4 | (G,12 F,2 E,2 | D,24 || z16 | z16 | z16 | z16 | z8 B,8 | %16
w: * a- ni- ma|me- a Do- mi-|num. * *||||||Lau-|
 A,8 G,8 | A,6 A,2 D,8 | z8 F,8 | E,8 D,4 F,2 G,2 | A,2 B,2 C2 A,2 B,2 C2 D4- | D4 ^C4 D4 D,4 | %22
w: da- bo|Do- mi- num,|lau-|da- bo Do\- *||* mi- num, lau-|
 D,4 D,4 (B,,6 C,2 | D,4) D,4 G,8 | z4 D4 C4 B,4 | A,8 G,2 A,2 B,2 C2 | D4 D4 (D,6 E,2 | %27
w: da- bo Do\- *|* mi- num|in vi- ta|me- a, * * *|* in vi\- *|
 F,2 E,2 D,2 C,2 B,,8) | C,16 | D,16 | G,,8 z8 | z16 | z16 | z16 | z4 D,4 G,4 D,4 | %35
w: |ta|me-|a:||||quam- di- u|
 A,6 D,2 D,4 D,4 | G,4 B,4 A,6 D,2 | D,4 =B,,4 C,4 G,4 | D,6 D,2 G,4 G,2 A,2 | %39
w: fu- e- ro, quam-|di- u fu- e-|ro, quam- di- u|fu- e- ro, psal\- *|
 B,2 C2 D2 C2 D2 C2 B,2 A,2 | B,6 A,2 G,2 ^F,2 G,2 A,2 | B,4) A,4 G,4 F,4 | C8 F,4 D,4 | %43
w: ||* lam De- o|me- o, quam-|
 G,4 D,4 A,6 D,2 | D,4 D,4 G,4 B,4 | A,6 D,2 D,4 =B,,4 | C,4 G,4 D,6 D,2 | G,16 |] %48
w: di- u fu- e-|ro, quam- di- u|fu- e- ro, quam-|di- u fu- e-|ro.|

